static/images/cs-hyperverge-red.svg

<svg width="53" height="101" viewBox="0 0 53 101" fill="none" xmlns="http://www.w3.org/2000/svg">
<path d="M35.0331 65.2373C35.0423 65.8068 35.425 66.388 35.151 66.9774C34.304 68.2396 33.9908 70.2313 32.5383 70.6448C31.6574 71.9606 31.2578 74.1274 29.7666 74.6064C29.4047 75.2969 29.038 75.9966 28.692 76.6569C28.3524 76.8443 28.0437 77.0147 27.7353 77.1847C27.2501 78.0203 27.3684 78.3086 26.3263 78.8361C25.8727 79.3121 25.6285 79.8551 24.9988 79.9906C24.177 81.0191 24.347 81.5732 22.9795 81.9814C22.2216 82.0744 22.244 82.7859 21.6506 83.1352C21.1431 83.2131 20.8897 83.6552 20.6394 84.117C20.0483 84.4828 19.2915 84.5943 18.78 85.1005C18.4892 85.858 17.8892 85.9165 17.3859 86.1528C16.952 86.3563 16.5417 86.539 16.3433 87.1091C15.0777 88.192 15.0715 88.1888 14.6691 88.9914C13.7382 89.522 12.7512 89.7701 11.8525 90.428C11.3871 91.4674 10.4967 91.3225 9.82519 91.7871C9.26358 93.1266 7.67136 92.7447 7.1607 94.0831C5.91379 94.9086 4.10983 94.9077 3.23889 96.3643C0.0996856 98.6381 -0.55732 95.4351 0.412109 99.9137C1.03545 100.453 1.81924 99.6254 2.565 99.408C3.45448 99.7377 4.38915 99.0888 5.34713 98.6415C5.67309 98.4815 5.73248 97.9825 6.0384 97.8035C6.68612 97.3691 8.62196 96.8683 8.78499 96.267C9.03803 95.6545 9.58342 95.7859 9.90514 95.428C10.1859 94.8066 10.6825 94.5574 11.2211 94.2589C11.6241 93.0185 14.0869 92.9423 14.3971 92.1174C14.8773 91.2209 15.5829 91.6656 15.9247 90.5336C16.727 90.1861 17.7001 89.9752 18.1882 89.0042C18.9733 88.8021 19.1618 88.0395 19.831 87.6873C20.262 87.5191 20.7042 87.3491 21.1085 87.0843C21.382 86.9053 21.4281 86.3949 21.8021 86.2471C22.1252 86.1197 22.4446 85.959 22.7645 85.8052C23.4598 85.7185 23.4942 84.9228 24.0939 84.6491C24.2958 84.591 24.4941 84.4212 24.6939 84.3019C24.909 83.5321 25.6369 83.6075 25.988 83.1106C26.269 82.4072 26.9871 82.4729 27.302 81.9391C27.5358 81.343 28.0203 81.3293 28.3977 81.0572C28.757 80.4887 29.1137 80.1069 29.7413 79.9215C30.7668 77.4533 31.0472 79.1546 32.1653 76.6722C33.9679 76.2335 33.8812 73.0044 35.6052 72.4141C36.8586 70.9918 36.5946 69.7147 38.4018 68.4578C38.9714 68.0198 38.9912 66.8277 39.7715 66.8254C40.1213 67.1385 40.5295 67.0005 40.9638 66.7563C41.2815 66.5296 41.5074 66.9811 41.8212 66.8798C43.6636 65.8519 45.8629 65.5309 47.32 63.8087C47.9013 63.4549 48.7331 63.4446 49.0897 62.693C49.3438 62.0415 50.1212 62.2694 50.4033 61.5159C51.4202 58.958 53.7954 56.4184 53.7534 53.8029C54.1512 52.8641 55.0213 51.9515 54.6188 51.0005C54.8708 50.3775 54.998 49.8431 54.8132 49.2521C55.2379 48.1021 55.6782 48.0339 55.3753 46.8073C55.4413 46.4608 55.8147 46.1605 55.6741 45.7529C55.6031 45.5473 55.5326 45.2837 55.5933 45.0633C55.9536 44.4796 55.8577 43.9262 55.8036 43.3148C56.1613 42.8244 56.0907 42.3727 55.9848 41.9146C56.5788 40.2034 55.7499 38.6675 55.6246 37.0375C55.5536 36.5972 55.3445 36.1847 55.6877 35.6379C55.9714 34.8175 55.211 32.5284 55.138 31.4587C55.4731 30.987 55.5996 30.5246 55.3806 30.0718C55.2172 29.5971 55.8268 29.1736 55.6511 28.6587C54.8382 24.4183 54.1656 20.0656 53.3916 15.7999C52.1526 15.2394 52.9912 12.7501 51.7739 12.0929C51.3876 11.0511 51.7575 9.35619 50.6899 8.96952C50.375 7.91932 50.6848 6.08161 49.5685 5.69637C49.1186 5.53017 49.1386 5.48227 49.0556 4.98636C48.9843 3.92469 48.6765 3.21939 47.781 2.9835C47.7049 2.65096 47.6285 2.31829 47.5504 1.97573C46.2995 1.3202 45.0426 0.661534 43.7804 4.71926e-05C43.4718 0.128276 43.154 0.260205 42.8362 0.392144C42.3063 -0.09652 41.654 0.492589 40.9628 0.753358C40.7388 1.30923 39.8533 2.29276 40.4336 2.70554C41.7752 3.42429 43.1144 4.14812 44.4804 4.81906C44.9623 5.05587 45.3128 5.35579 45.3161 6.03846C45.7164 6.37302 46.0194 6.69115 46.045 7.36034C46.1052 7.55347 46.4252 7.56676 46.5168 7.70321C46.6541 8.27967 46.6815 8.8762 47.2827 8.98878C47.355 9.32519 47.4274 9.66162 47.4998 9.99803C48.4786 10.3534 48.136 12.1121 48.5145 13.0779C49.9643 14.1838 49.0269 17.4118 50.3068 18.649C50.6348 19.0906 50.8471 19.9663 50.5133 20.6163C50.2493 21.1154 50.2906 21.2551 50.652 21.4961C51.7622 23.3823 51.606 26.5636 52.233 28.9039C51.6392 30.4811 52.3944 31.9326 52.5426 33.4286C52.6301 33.8178 52.2764 34.1307 52.2438 34.4786C52.2215 34.7187 52.3276 34.9386 52.3498 35.1773C52.3926 35.6392 52.6255 36.0359 52.4596 36.5697C51.9417 37.3401 52.6299 37.9288 52.0549 38.6666C52.0369 40.1231 52.6698 41.3763 52.6102 42.8451C52.2476 43.3441 52.37 43.7884 52.4541 44.2445C52.4824 44.596 52.0789 44.9501 52.1533 45.2912C52.2205 46.2133 52.2373 46.2226 51.7819 47.0356C51.2775 48.235 52.1039 49.3275 52.0316 50.5118C51.4091 52.0874 50.208 52.9854 50.3609 54.7285C49.9889 56.1584 48.9269 57.5347 48.3057 58.9372C48.0755 59.3785 48.0769 59.3784 47.0596 60.2093C46.2614 60.9639 45.9523 63.303 44.7757 62.3268C43.5999 62.8705 42.4241 63.4137 41.2485 63.957C39.1891 63.3239 43.0506 60.4187 42.2601 58.867C41.8674 57.7774 42.3648 57.064 42.9329 56.0754C43.3942 55.3148 42.7217 54.6935 43.3382 53.9739C43.2319 53.3764 43.0998 52.8413 43.5559 52.2454C43.4302 51.2948 43.0564 50.4405 43.5574 49.4377C43.1337 47.0069 42.7103 44.5762 42.2937 42.184C41.6431 41.7775 41.2562 41.9366 41.087 40.8676C41.0034 40.5007 40.6161 40.5203 40.4925 40.2324C40.2665 38.5668 38.2779 38.5866 37.2368 37.7367C37.069 37.647 37.0047 37.4221 37.0048 37.1533C36.8005 36.1665 35.532 36.0901 34.8547 35.6181C33.5716 36.2285 32.7891 35.3516 31.7499 34.868C31.4319 34.9918 31.1139 35.1156 30.7699 35.2495C30.2361 35.0124 29.7621 34.4282 29.0788 34.9876C28.3223 35.3973 27.7586 33.8622 27.1459 35.0156C26.8558 35.7738 26.1825 35.5108 25.8232 36.1879C25.4815 36.9011 25.1209 37.6116 24.7175 38.2899C24.3026 39.1403 24.9789 39.5324 24.3287 40.3987C24.379 42.2434 25.5842 44.1299 24.8177 46.021C25.052 47.366 25.3064 48.7489 25.5282 50.1462C26.4599 51.0811 26.4837 52.7637 26.7237 54.2585C26.7413 54.8449 27.3542 54.7119 27.4135 55.2273C27.4807 55.8137 27.6278 56.3688 27.7406 56.9374C28.2971 57.0549 28.3077 57.6973 28.497 58.2292C29.2376 58.3539 28.8287 59.514 29.5224 59.663C30.0751 59.805 30.3016 60.2415 30.3573 60.8789C30.477 61.1723 30.8674 61.148 30.9526 61.5131C31.1343 63.1421 32.9369 62.3631 32.8712 64.1016C33.5895 64.4808 34.3087 64.8577 35.0331 65.2373ZM39.7183 47.1076C39.7577 47.9762 40.2889 48.9237 40.0004 49.8395C39.5803 50.6378 40.1082 51.4877 40.1239 52.2764C40.1762 52.7235 40.4152 53.1275 40.065 53.6721C39.7298 54.298 40.3454 54.766 39.8396 55.4139C39.1643 56.1984 39.4755 57.7955 39.0588 58.2042C38.5955 59.4489 37.2655 60.7911 37.4222 62.0479C37.5281 62.3435 37.4964 62.5046 37.268 62.6067C36.453 62.7075 35.8147 61.9124 35.0778 61.6824C34.6267 61.4343 34.9379 60.5126 34.3289 60.3815C33.3981 60.3498 33.7576 59.0991 33.0369 58.808C32.9624 58.787 32.9176 58.6539 32.8881 58.555C32.8067 57.3282 31.6451 57.729 31.5727 56.603C31.6144 56.1154 31.2 56.1492 30.9976 55.9498C30.7199 55.126 30.8758 53.9334 30.0626 53.6128C29.9818 53.1498 29.8479 52.7017 29.8347 52.2195C29.8189 51.6501 29.2499 51.6657 29.172 51.2424C28.8184 48.1081 27.5416 45.1346 28.0314 41.8552C27.9219 40.8696 27.2587 39.7522 27.9376 38.7331C28.6792 38.3781 29.421 38.0235 30.1514 37.6742C30.743 37.8496 31.2367 38.2106 31.7885 38.4701C32.1057 38.3478 32.4227 38.2253 32.7725 38.0903C33.2893 38.3611 33.8342 38.6467 34.3548 38.9195C34.4266 39.2557 34.4984 39.5918 34.5736 39.9413C35.4605 40.4061 36.3553 40.8751 37.2428 41.3402C37.2806 42.031 37.4804 42.4032 37.959 42.6805C38.0696 43.1052 38.056 43.5819 38.4886 43.7988C39.2668 44.5567 38.545 46.7365 39.7183 47.1076Z" fill="#FC6B7E"/>
</svg>

<svg xmlns="http://www.w3.org/2000/svg" width="53" height="101" fill="none" viewBox="0 0 53 101"><path fill="#fc6b7e" d="M35.033 65.237c.01.57.392 1.151.118 1.74-.847 1.263-1.16 3.254-2.613 3.668-.88 1.316-1.28 3.482-2.771 3.961l-1.075 2.05-.957.529c-.485.835-.367 1.124-1.409 1.651-.453.476-.698 1.02-1.327 1.155-.822 1.028-.652 1.582-2.02 1.99-.757.093-.735.805-1.328 1.154-.508.078-.761.52-1.012.982-.59.366-1.348.477-1.859.983-.29.758-.89.817-1.394 1.053-.434.203-.844.386-1.043.956-1.265 1.083-1.271 1.08-1.674 1.882-.93.531-1.918.78-2.817 1.437-.465 1.04-1.355.895-2.027 1.36-.561 1.339-2.154.957-2.664 2.295-1.247.826-3.051.825-3.922 2.281-3.14 2.274-3.796-.929-2.827 3.55.623.539 1.407-.289 2.153-.506.89.33 1.824-.32 2.782-.767.326-.16.385-.659.691-.838.648-.434 2.584-.935 2.747-1.536.253-.612.798-.481 1.12-.839.28-.621.777-.87 1.316-1.17.403-1.24 2.866-1.316 3.176-2.14.48-.897 1.186-.452 1.528-1.584.802-.348 1.775-.559 2.263-1.53.785-.202.974-.965 1.643-1.317.431-.168.873-.338 1.277-.603.274-.179.32-.69.694-.837.323-.127.643-.288.963-.442.695-.087.73-.882 1.329-1.156.202-.058.4-.228.6-.347.215-.77.943-.695 1.294-1.191.281-.704 1-.638 1.314-1.172.234-.596.718-.61 1.096-.882.359-.568.716-.95 1.343-1.136 1.026-2.468 1.306-.766 2.424-3.249 1.803-.438 1.716-3.668 3.44-4.258 1.254-1.422.99-2.7 2.797-3.956.57-.438.59-1.63 1.37-1.633.35.313.758.175 1.192-.069.318-.226.543.225.857.124 1.843-1.028 4.042-1.35 5.499-3.071.581-.354 1.413-.364 1.77-1.116.254-.651 1.031-.424 1.313-1.177 1.017-2.558 3.392-5.098 3.35-7.713.398-.939 1.268-1.851.866-2.802.252-.623.379-1.158.194-1.749.425-1.15.865-1.218.562-2.445.066-.346.44-.647.3-1.054-.072-.206-.142-.47-.082-.69.36-.583.265-1.137.21-1.748.358-.49.288-.942.182-1.4.594-1.712-.235-3.248-.36-4.877-.071-.44-.28-.853.063-1.4.283-.82-.477-3.11-.55-4.18.335-.471.462-.933.243-1.386-.164-.475.446-.898.27-1.413-.813-4.24-1.485-8.593-2.26-12.86-1.238-.56-.4-3.049-1.617-3.706-.386-1.042-.017-2.737-1.084-3.123-.315-1.05-.005-2.888-1.121-3.274-.45-.166-.43-.214-.513-.71-.072-1.061-.38-1.767-1.275-2.002l-.23-1.008L43.78 0l-.945.392c-.53-.489-1.182.1-1.873.361-.224.556-1.11 1.54-.53 1.953 1.342.718 2.681 1.442 4.047 2.113.482.237.833.537.836 1.22.4.334.703.652.729 1.321.06.193.38.207.472.343.137.577.164 1.173.766 1.286l.217 1.009c.979.355.636 2.114 1.014 3.08 1.45 1.106.513 4.334 1.793 5.571.328.442.54 1.317.206 1.967-.264.5-.222.64.139.88 1.11 1.886.954 5.068 1.581 7.408-.594 1.577.161 3.029.31 4.525.087.389-.267.702-.3 1.05-.022.24.085.46.107.698.043.462.276.859.11 1.393-.518.77.17 1.359-.405 2.097-.018 1.456.615 2.71.555 4.178-.362.5-.24.943-.156 1.4.028.351-.375.705-.3 1.046.066.922.083.932-.372 1.745-.504 1.199.322 2.291.25 3.476-.623 1.575-1.824 2.473-1.671 4.216-.372 1.43-1.434 2.807-2.055 4.21-.23.44-.23.44-1.246 1.271-.799.755-1.108 3.094-2.284 2.118l-3.528 1.63c-2.059-.633 1.803-3.538 1.012-5.09-.393-1.09.105-1.803.673-2.792.461-.76-.211-1.382.405-2.101-.106-.598-.238-1.133.218-1.729-.126-.95-.5-1.804.001-2.807l-1.263-7.254c-.65-.406-1.038-.247-1.207-1.316-.084-.367-.47-.348-.595-.636-.225-1.665-2.214-1.645-3.255-2.495-.168-.09-.232-.315-.232-.584-.205-.986-1.473-1.063-2.15-1.535-1.283.61-2.066-.266-3.105-.75l-.98.381c-.534-.237-1.008-.82-1.691-.261-.757.41-1.32-1.126-1.933.028-.29.758-.963.495-1.323 1.172a27 27 0 0 1-1.105 2.102c-.415.85.26 1.242-.39 2.109.051 1.844 1.256 3.73.49 5.622.234 1.345.488 2.728.71 4.125.932.935.956 2.618 1.196 4.112.017.587.63.454.69.97.067.586.214 1.14.327 1.71.556.117.567.76.756 1.291.74.125.332 1.285 1.025 1.434.553.142.78.579.835 1.216.12.293.51.269.596.634.181 1.63 1.984.85 1.918 2.589q1.077.568 2.162 1.135m4.685-18.13c.04.87.57 1.817.282 2.733-.42.798.108 1.648.124 2.436.052.447.291.851-.059 1.396-.335.626.28 1.094-.225 1.742-.676.784-.365 2.381-.781 2.79-.463 1.245-1.793 2.587-1.637 3.844.106.295.074.457-.154.559-.815.1-1.453-.695-2.19-.925-.451-.248-.14-1.17-.75-1.3-.93-.032-.57-1.283-1.291-1.574-.075-.021-.12-.154-.149-.253-.081-1.227-1.243-.826-1.315-1.952.041-.488-.373-.454-.575-.653-.278-.824-.122-2.017-.935-2.337-.081-.463-.215-.911-.228-1.394-.016-.569-.585-.553-.663-.977-.354-3.134-1.63-6.107-1.14-9.387-.11-.985-.773-2.103-.094-3.122l2.213-1.059c.592.176 1.086.537 1.637.796l.985-.38 1.582.83c.072.336.143.672.219 1.021l2.669 1.4c.038.69.237 1.062.716 1.34.11.424.097.9.53 1.118.778.758.056 2.938 1.23 3.309"/></svg>
